X:2027
T:Felix The Wrestler
S:Levey Collection 1 (p. 60)
R:jig
M:6/8
L:1/8
K:Amix
|:c2A AcA|ecA AB=c|B2G GBG|dBG Bcd|
c2A AcA|ecA ABc|ded Bcd|ecA A2d:|
|:c2a a^ga|efe edc|B2g gfg|ded dcB|
c2a a^ga|efe edc|ded Bcd|ecA A2d:|
